X:1
T:Miss Macleod of Dalvey's Waltz
C:William Christie (1778-1849)
N:Christie was a dancing master, fiddler
N:and composer from Cuminestown, Aberdeenshire.
M:3/8
L:1/8
R:Waltz
B:Christie - Collection of Strathspeys, Reels, Hornpipes,
B:Waltzes &c. (Edinburgh, 1820, p. 19)
Z:AK/Fiddler’s Companion
K:G
(D/E/4F/4)|(G/B/) D (F/A/)|(G/B/) D (F/A/)|(G/B/)(d/c/)(c/B/)|(B/A/)(A/G/)(G/F/)|(G/B/) D(F/A/)|
(G/B/) D (F/A/)|(G/B/d/).D/ A/F/|G/B/ ~G:||:(d/e/4f/4) (g/f/) {f}e a/f/|g/b/ ~g (f/a/)|
(g/d/)(e/c/) (d/c/B/c/)|(B/A/)(A/G/)(G/F/)|(G/B/) D (F/A/)|(G/B/) ~d (c/B/)|(c/e/)d/D/A/F/|G/B/ ~G:|
|:(DE/4F/4)|G(D/G/)(B,/G/)|(G,/G/)(B,/G/)(D/G/)|(F/A,/)(A/A,/)(F/A/)|.G/(C/B,/C/)(A,/F/)|~G(D/G/)(B,/G/)|
(G,/G/)(B,/G/)(D/G/)|(F/A,/)(A/A,/)(F/A,/)|G/B/ ~G:||:(d/e/4f/4)|g/d/b/d/g/d/|
f/d/a/d/f/d/|g/d/b/d/e/G/|{A}(G/F/) F3D|(G/B/) (D/d/) (c/B/)|(c/e/)d/D/A/F/|G/B/ G:|]

